Icons/SVGs/countries.svg

<?xml version="1.0" encoding="UTF-8" standalone="no"?>
<svg width="100px" height="100px" viewBox="0 0 100 100" version="1.1" xmlns="http://www.w3.org/2000/svg" xmlns:xlink="http://www.w3.org/1999/xlink" xmlns:sketch="http://www.bohemiancoding.com/sketch/ns">
    <!-- Generator: Sketch 3.3.3 (12072) - http://www.bohemiancoding.com/sketch -->
    <title>countries</title>
    <desc>Created with Sketch.</desc>
    <defs></defs>
    <g id="Page-1" stroke="none" stroke-width="1" fill="none" fill-rule="evenodd" sketch:type="MSPage">
        <g id="countries" sketch:type="MSArtboardGroup" fill="#000000">
            <path d="M50.0006666,0 C22.3883446,0 0,22.3843198 0,49.9980001 C0,77.6130178 22.3883446,99.9973334 50.0006666,99.9973334 C77.6130137,99.9973334 100,77.6130178 100,49.9980001 C100,22.3829865 77.6130137,0 50.0006666,0 L50.0006666,0 Z M71.149186,65.3731067 C71.149186,66.1589233 70.8724851,67.3839864 70.5353274,68.0932383 L66.8842998,75.7942247 C66.5457671,76.5034724 65.8016203,77.5216744 65.2266773,78.0616725 L53.3400776,89.1611432 C52.7678429,89.6957664 52.9410882,90.1377047 53.7255673,90.1377047 L55.087656,90.1377047 C55.8721351,90.1377047 56.5155763,90.7005355 56.5155763,91.3869463 C56.5155763,92.0787362 55.8721351,92.6429087 55.087656,92.6429087 L49.2444368,92.6429087 C48.4585828,92.6429087 47.8165166,91.99948 47.8165166,91.2123218 L47.8165166,76.0118355 C47.8165166,75.2219899 48.4585828,74.5825945 49.2444368,74.5825945 L50.8684352,74.5825945 C51.6555809,74.5825945 52.2976887,73.9391658 52.2976887,73.1533492 L52.2976887,71.5293301 C52.2976887,70.7421719 51.6542476,70.0987432 50.8684352,70.0987432 L49.2444368,70.0987432 C48.4585828,70.0987432 47.8165166,69.458002 47.8165166,68.6721896 L47.8165166,59.7662812 C47.8165166,58.9804689 47.1730754,58.3383818 46.3859297,58.3383818 L43.9693692,58.3383818 C43.186265,58.3383818 42.0162546,57.9676209 41.3768633,57.512258 L33.6893058,52.0746947 C33.0472229,51.6219984 32.1955873,50.6964814 31.7966354,50.0181245 L28.199348,43.9116207 C27.8003962,43.2345971 26.8305512,42.6798202 26.0447346,42.6798202 L24.3280304,42.6798202 C23.542218,42.6798202 22.6207301,42.099544 22.2795392,41.3929795 L18.1127045,32.7610847 C17.7768843,32.0545619 17.4934543,30.8335111 17.4934543,30.0449905 L17.4934543,25.12458 C17.4934543,24.3387676 16.879579,23.8834048 16.1286907,24.1144403 L14.4522813,24.6302599 C21.7059628,14.4912386 33.1802069,7.58279779 46.289224,6.47324405 L46.289224,12.4078358 C46.289224,13.1922732 46.8144183,14.2051212 47.4565262,14.6551092 L50.1336631,16.537059 C50.7771043,16.987047 51.9444065,17.3577871 52.7315522,17.3577871 L54.8485374,17.3577871 C55.6343914,17.3577871 56.2764576,17.8762733 56.2764576,18.511673 C56.2764576,19.1443228 55.8331778,20.1289632 55.2931922,20.701198 L52.2426069,23.9169872 C51.699913,24.4851804 51.9027409,24.9526679 52.68722,24.9553345 L54.723624,24.9607094 C55.5067698,24.9620427 56.148836,25.6054839 56.148836,26.3926295 L56.1448361,31.5252843 C56.1421279,32.3097634 56.7841941,32.9532046 57.5700481,32.9532046 L59.8670285,32.9532046 C60.6528409,32.9532046 61.2962821,33.4408166 61.2962821,34.0385506 C61.2962821,34.6349931 60.6528409,35.1225634 59.8670285,35.1225634 L52.824258,35.1225634 C52.0397789,35.1225634 50.885893,35.5134696 50.262618,35.9889986 L47.375945,38.1892733 C46.751295,38.6648023 46.2395169,39.6977747 46.2408502,40.4835871 L46.2421835,49.0201095 C46.2421835,49.8059218 45.6014506,50.4493214 44.814305,50.4493214 L44.4153573,50.4493214 C43.6308782,50.4493214 42.987437,49.8059218 42.987437,49.0201095 L42.987437,44.1064072 C42.987437,43.3205948 42.3467041,42.6784869 41.5595501,42.6784869 L37.7070403,42.6784869 C36.9239112,42.6784869 36.2791409,43.3205948 36.273766,44.1064072 L36.2536166,48.0730931 C36.2482459,48.8589054 36.7492867,49.9026276 37.363162,50.3969477 L43.050602,54.9587011 C43.6604191,55.451688 44.8062218,55.8546772 45.5907009,55.8560105 L55.0889893,55.8613854 C55.8734684,55.8627187 57.087811,56.160919 57.7836258,56.524951 L69.8851781,62.8477532 C70.5809928,63.211781 71.1505193,64.1520726 71.1505193,64.9392308 L71.1505193,65.3731067 L71.149186,65.3731067 Z M67.4793672,22.5710231 C66.8453425,23.0371357 65.6847484,23.4186255 64.898936,23.4186255 L64.2837024,23.4186255 C63.4992234,23.4186255 62.8558238,22.775226 62.8558238,21.989372 L62.8558238,17.3457041 C62.8558238,16.5598917 62.2150909,15.9177839 61.4279036,15.9177839 L59.3592504,15.9177839 C58.573438,15.9177839 57.9313718,15.2743843 57.9313718,14.4899053 L57.9313718,7.04414549 C64.7686478,8.30544519 71.0591884,11.1451611 76.387963,15.1964698 C76.2039262,15.8076618 67.4793672,22.5710231 67.4793672,22.5710231 L67.4793672,22.5710231 Z" sketch:type="MSShapeGroup"></path>
        </g>
    </g>
</svg>

<?xml version="1.0" encoding="UTF-8" standalone="no"?>
<svg
   xmlns:sketch="http://www.bohemiancoding.com/sketch/ns"
   xmlns:dc="http://purl.org/dc/elements/1.1/"
   xmlns:cc="http://creativecommons.org/ns#"
   xmlns:rdf="http://www.w3.org/1999/02/22-rdf-syntax-ns#"
   xmlns:svg="http://www.w3.org/2000/svg"
   xmlns="http://www.w3.org/2000/svg"
   xmlns:sodipodi="http://sodipodi.sourceforge.net/DTD/sodipodi-0.dtd"
   xmlns:inkscape="http://www.inkscape.org/namespaces/inkscape"
   width="100px"
   height="100px"
   viewBox="0 0 100 100"
   version="1.1"
   id="svg2"
   inkscape:version="0.48.5 r10040"
   sodipodi:docname="countries.svg">
  <metadata
     id="metadata16">
    <rdf:RDF>
      <cc:Work
         rdf:about="">
        <dc:format>image/svg+xml</dc:format>
        <dc:type
           rdf:resource="http://purl.org/dc/dcmitype/StillImage" />
      </cc:Work>
    </rdf:RDF>
  </metadata>
  <sodipodi:namedview
     pagecolor="#ffffff"
     bordercolor="#666666"
     borderopacity="1"
     objecttolerance="10"
     gridtolerance="10"
     guidetolerance="10"
     inkscape:pageopacity="0"
     inkscape:pageshadow="2"
     inkscape:window-width="640"
     inkscape:window-height="480"
     id="namedview14"
     showgrid="false"
     inkscape:zoom="2.36"
     inkscape:cx="50"
     inkscape:cy="50"
     inkscape:window-x="1276"
     inkscape:window-y="596"
     inkscape:window-maximized="0"
     inkscape:current-layer="svg2" />
  <!-- Generator: Sketch 3.3.3 (12072) - http://www.bohemiancoding.com/sketch -->
  <title
     id="title4">countries</title>
  <desc
     id="desc6">Created with Sketch.</desc>
  <defs
     id="defs8" />
  <path
     style="fill:#000000;fill-rule:evenodd;stroke:none"
     d="M 50.000667,0 C 22.388345,0 0,22.38432 0,49.998 0,77.613018 22.388345,99.997333 50.000667,99.997333 77.613014,99.997333 100,77.613018 100,49.998 100,22.382986 77.613014,0 50.000667,0 l 0,0 z m 21.148519,65.373107 c 0,0.785816 -0.276701,2.010879 -0.613859,2.720131 L 66.8843,75.794225 c -0.338533,0.709247 -1.08268,1.727449 -1.657623,2.267447 L 53.340078,89.161143 c -0.572235,0.534623 -0.39899,0.976562 0.385489,0.976562 l 1.362089,0 c 0.784479,0 1.42792,0.56283 1.42792,1.249241 0,0.69179 -0.643441,1.255963 -1.42792,1.255963 l -5.843219,0 c -0.785854,0 -1.42792,-0.643429 -1.42792,-1.430587 l 0,-15.200486 c 0,-0.789846 0.642066,-1.429242 1.42792,-1.429242 l 1.623998,0 c 0.787146,0 1.429254,-0.643428 1.429254,-1.429245 l 0,-1.624019 c 0,-0.787158 -0.643441,-1.430587 -1.429254,-1.430587 l -1.623998,0 c -0.785854,0 -1.42792,-0.640741 -1.42792,-1.426553 l 0,-8.905909 c 0,-0.785812 -0.643442,-1.427899 -1.430587,-1.427899 l -2.416561,0 c -0.783104,0 -1.953114,-0.370761 -2.592506,-0.826124 L 33.689306,52.074695 C 33.047223,51.621998 32.195587,50.696481 31.796635,50.018124 L 28.199348,43.911621 C 27.800396,43.234597 26.830551,42.67982 26.044735,42.67982 l -1.716705,0 c -0.785812,0 -1.7073,-0.580276 -2.048491,-1.28684 l -4.166835,-8.631895 c -0.33582,-0.706523 -0.61925,-1.927574 -0.61925,-2.716095 l 0,-4.92041 c 0,-0.785812 -0.613875,-1.241175 -1.364763,-1.01014 l -1.67641,0.51582 C 21.705963,14.491239 33.180207,7.5827978 46.289224,6.473244 l 0,5.934592 c 0,0.784437 0.525194,1.797285 1.167302,2.247273 l 2.677137,1.88195 c 0.643441,0.449988 1.810743,0.820728 2.597889,0.820728 l 2.116985,0 c 0.785854,0 1.427921,0.518486 1.427921,1.153886 0,0.63265 -0.44328,1.61729 -0.983266,2.189525 l -3.050585,3.215789 c -0.542694,0.568193 -0.339866,1.035681 0.444613,1.038347 l 2.036404,0.0054 c 0.783146,0.0013 1.425212,0.644775 1.425212,1.431921 l -0.004,5.132654 c -0.0027,0.784479 0.639358,1.427921 1.425212,1.427921 l 2.296981,0 c 0.785812,0 1.429253,0.487612 1.429253,1.085346 0,0.596442 -0.643441,1.084012 -1.429253,1.084012 l -7.042771,0 c -0.784479,0 -1.938365,0.390907 -2.56164,0.866436 l -2.886673,2.200274 c -0.62465,0.475529 -1.136428,1.508502 -1.135095,2.294314 l 0.0013,8.536522 c 0,0.785813 -0.640733,1.429212 -1.427879,1.429212 l -0.398948,0 c -0.784479,0 -1.42792,-0.643399 -1.42792,-1.429212 l 0,-4.913702 c 0,-0.785812 -0.640733,-1.42792 -1.427887,-1.42792 l -3.85251,0 c -0.783129,0 -1.427899,0.642108 -1.433274,1.42792 l -0.02015,3.966686 c -0.0054,0.785812 0.49567,1.829535 1.109545,2.323855 l 5.68744,4.561753 c 0.609817,0.492987 1.75562,0.895976 2.540099,0.897309 l 9.498288,0.0054 c 0.784479,0.0013 1.998822,0.299534 2.694637,0.663566 l 12.101552,6.322802 c 0.695815,0.364028 1.265341,1.30432 1.265341,2.091478 l 0,0.433876 -0.0013,0 z M 67.479367,22.571023 c -0.634025,0.466113 -1.794619,0.847602 -2.580431,0.847602 l -0.615234,0 c -0.784479,0 -1.427878,-0.643399 -1.427878,-1.429253 l 0,-4.643668 c 0,-0.785812 -0.640733,-1.42792 -1.42792,-1.42792 l -2.068654,0 c -0.785812,0 -1.427878,-0.6434 -1.427878,-1.427879 l 0,-7.4457595 c 6.837276,1.2612997 13.127816,4.1010155 18.456591,8.1523245 -0.184037,0.611192 -8.908596,7.374553 -8.908596,7.374553 l 0,0 z"
     sketch:type="MSShapeGroup"
     id="path12"
     inkscape:connector-curvature="0" />
</svg>
